; generated by PrusaSlicer 2.1.0+win64 on 2020-02-08 at 12:20:45 UTC

; 

; external perimeters extrusion width = 0.45mm
; perimeters extrusion width = 0.45mm
; infill extrusion width = 0.45mm
; solid infill extrusion width = 0.45mm
; top infill extrusion width = 0.40mm
; first layer extrusion width = 0.42mm

M73 P0 R107
M73 Q0 S108
M201 X1000 Y1000 Z1000 E5000 ; sets maximum accelerations, mm/sec^2
M203 X200 Y200 Z12 E120 ; sets maximum feedrates, mm/sec
M204 P1250 R1250 T1250 ; sets acceleration (P, T) and retract acceleration (R), mm/sec^2
M205 X8.00 Y8.00 Z0.40 E1.50 ; sets the jerk limits, mm/sec
M205 S0 T0 ; sets the minimum extruding and travel feed rate, mm/sec
M107
M862.3 P "MK3S" ; printer model check
M862.1 P0.4 ; nozzle diameter check
M115 U3.8.1 ; tell printer latest fw version
G90 ; use absolute coordinates
M83 ; extruder relative mode
M104 S240 ; set extruder temp
M140 S85 ; set bed temp
M190 S85 ; wait for bed temp
M109 S240 ; wait for extruder temp
G28 W ; home all without mesh bed level
G80 ; mesh bed leveling
G1 Y-3.0 F1000.0 ; go outside print area
G92 E0.0
G1 X60.0 E9.0 F1000.0 ; intro line
M73 Q0 S108
M73 P0 R107
G1 X100.0 E12.5 F1000.0 ; intro line
G92 E0.0
M221 S95
G21 ; set units to millimeters
G90 ; use absolute coordinates
M83 ; use relative distances for extrusion
M900 K45 ; Filament gcode
;BEFORE_LAYER_CHANGE
G92 E0.0
;0.2


G1 E-1.40000 F2100.00000
G1 Z0.200 F10800.000
;AFTER_LAYER_CHANGE
;0.2
G1 Z0.400
G1 X95.750 Y83.323
G1 Z0.200
G1 E1.40000 F2100.00000
M204 S1000
G1 F1200
G1 X96.347 Y82.760 E0.02574
G1 X118.835 Y68.651 E0.83238
G1 X119.431 Y68.397 E0.02032
G1 X120.278 Y68.278 E0.02680
G1 X120.756 Y68.332 E0.01510
G1 X146.613 Y74.251 E0.83168
G1 X147.302 Y74.543 E0.02349
G1 X147.850 Y74.952 E0.02143
G1 X148.211 Y75.387 E0.01771
G1 X158.735 Y92.231 E0.62275
G1 X159.058 Y92.911 E0.02361
G1 X159.183 Y93.368 E0.01487
G1 X159.205 Y93.871 E0.01578
G1 X159.112 Y94.366 E0.01578
G1 X147.123 Y132.170 E1.24351
G1 X146.815 Y132.591 E0.01635
G1 X146.416 Y132.926 E0.01635
G1 X133.121 Y141.336 E0.49325
G1 X132.626 Y141.567 E0.01714
G1 X132.005 Y141.695 E0.01986
G1 X131.185 Y141.670 E0.02574
G1 X105.318 Y135.749 E0.83202
G1 X104.815 Y135.563 E0.01680
G1 X104.299 Y135.224 E0.01937
G1 X103.727 Y134.619 E0.02608
G1 X89.623 Y112.141 E0.83203
G1 X89.397 Y111.651 E0.01692
G1 X89.272 Y111.039 E0.01961
G1 X89.297 Y110.218 E0.02574
G1 X95.218 Y84.351 E0.83202
G1 X95.405 Y83.845 E0.01692
G1 X95.716 Y83.373 E0.01772
G1 F8640
G1 X96.347 Y82.760 E-0.20310
G1 X100.481 Y80.166 E-1.12690
G1 E-0.07000 F2100.00000
G1 Z0.400 F10800.000
G1 X97.870 Y85.216
G1 Z0.200
G1 E1.40000 F2100.00000
G1 F1200
G1 X114.646 Y74.610 E0.62231
G1 X120.089 Y71.142 E0.20235
G1 X139.451 Y75.506 E0.62231
G1 X145.752 Y76.903 E0.20235
G1 X155.903 Y92.946 E0.59527
G1 X153.231 Y93.417 E0.08506
G1 X147.116 Y83.744 E0.35882
G1 X144.179 Y79.133 E0.17139
G1 X126.583 Y75.168 E0.56556
G1 X120.555 Y73.832 E0.19360
G1 X105.308 Y83.470 E0.56556
G1 X100.100 Y86.788 E0.19360
G1 X96.135 Y104.384 E0.56556
G1 X94.798 Y110.412 E0.19360
G1 X104.437 Y125.659 E0.56556
G1 X107.755 Y130.867 E0.19360
G1 X125.351 Y134.832 E0.56556
G1 X131.379 Y136.168 E0.19360
G1 X143.138 Y128.733 E0.43621
G1 X144.393 Y130.906 E0.07868
G1 X131.846 Y138.858 E0.46575
G1 X112.483 Y134.494 E0.62233
G1 X106.182 Y133.097 E0.20235
G1 X95.577 Y116.321 E0.62231
G1 X92.109 Y110.878 E0.20235
G1 X96.473 Y91.516 E0.62231
G1 X97.857 Y85.274 E0.20047
G1 X97.535 Y84.981 F10800.000
G1 F1200
G1 X114.444 Y74.292 E0.62721
G1 X120.019 Y70.740 E0.20725
G1 X139.533 Y75.138 E0.62721
G1 X145.986 Y76.568 E0.20725
G1 X156.522 Y93.219 E0.61782
G1 X153.048 Y93.832 E0.11062
G1 X146.798 Y83.946 E0.36673
G1 X143.945 Y79.467 E0.16650
G1 X126.501 Y75.536 E0.56067
G1 X120.625 Y74.233 E0.18871
G1 X105.510 Y83.788 E0.56067
G1 X100.434 Y87.022 E0.18871
G1 X96.503 Y104.466 E0.56067
G1 X95.200 Y110.342 E0.18871
G1 X104.755 Y125.457 E0.56067
G1 X107.989 Y130.533 E0.18871
G1 X125.433 Y134.464 E0.56067
G1 X131.309 Y135.767 E0.18871
G1 X143.268 Y128.204 E0.44365
G1 X144.900 Y131.031 E0.10234
G1 X131.915 Y139.260 E0.48200
G1 X112.401 Y134.862 E0.62721
G1 X105.948 Y133.432 E0.20725
G1 X95.258 Y116.523 E0.62721
G1 X91.707 Y110.948 E0.20725
G1 X96.105 Y91.434 E0.62721
G1 X97.522 Y85.039 E0.20537
G1 X97.926 Y85.068 F10800.000
G1 F8640
G1 X102.385 Y81.951 E-1.33000
G1 E-0.07000 F2100.00000
G1 Z0.400 F10800.000
G1 X94.819 Y110.657
G1 Z0.200
G1 E1.40000 F2100.00000
G1 F1200
G1 X92.885 Y108.723 E0.08580
G1 X92.983 Y108.287 E0.01399
G1 X94.617 Y109.922 E0.07249
G1 X94.714 Y109.485 E0.01403
G1 X93.081 Y107.852 E0.07244
G1 X93.179 Y107.417 E0.01399
G1 X94.811 Y109.049 E0.07238
G1 X94.908 Y108.612 E0.01403
G1 X93.277 Y106.982 E0.07232
G1 X93.375 Y106.546 E0.01399
G1 X95.005 Y108.175 E0.07226
G1 X95.101 Y107.739 E0.01403
G1 X93.474 Y106.111 E0.07220
G1 X93.572 Y105.676 E0.01399
G1 X95.198 Y107.302 E0.07215
G1 X95.295 Y106.866 E0.01403
G1 X93.670 Y105.240 E0.07209
G1 X93.768 Y104.805 E0.01399
G1 X95.392 Y106.429 E0.07203
G1 X95.489 Y105.992 E0.01403
G1 X93.866 Y104.370 E0.07197
G1 X93.964 Y103.934 E0.01399
G1 X95.585 Y105.556 E0.07191
G1 X95.682 Y105.119 E0.01403
G1 X94.062 Y103.499 E0.07186
G1 X94.160 Y103.064 E0.01399
G1 X95.779 Y104.683 E0.07180
G1 X95.876 Y104.246 E0.01402
G1 X94.258 Y102.628 E0.07175
G1 X94.356 Y102.193 E0.01399
G1 X95.974 Y103.811 E0.07175
G1 X96.072 Y103.376 E0.01399
G1 X94.455 Y101.758 E0.07175
G1 X94.553 Y101.323 E0.01399
G1 X96.170 Y102.940 E0.07175
G1 X96.268 Y102.505 E0.01399
G1 X94.651 Y100.887 E0.07175
G1 X94.749 Y100.452 E0.01399
G1 X96.367 Y102.070 E0.07175
G1 X96.465 Y101.634 E0.01399
G1 X94.847 Y100.017 E0.07175
G1 X94.945 Y99.581 E0.01399
G1 X96.563 Y101.199 E0.07175
G1 X96.661 Y100.764 E0.01399
G1 X95.043 Y99.146 E0.07175
G1 X95.141 Y98.711 E0.01399
G1 X96.759 Y100.328 E0.07175
G1 X96.857 Y99.893 E0.01399
G1 X95.239 Y98.275 E0.07175
G1 X95.337 Y97.840 E0.01399
G1 X96.955 Y99.458 E0.07175
G1 X97.053 Y99.023 E0.01399
G1 X95.436 Y97.405 E0.07175
G1 X95.534 Y96.970 E0.01399
G1 X97.151 Y98.587 E0.07175
G1 X97.249 Y98.152 E0.01399
G1 X95.632 Y96.534 E0.07175
G1 X95.730 Y96.099 E0.01399
G1 X97.348 Y97.717 E0.07175
G1 X97.446 Y97.281 E0.01399
G1 X95.828 Y95.664 E0.07175
G1 X95.926 Y95.228 E0.01399
G1 X97.544 Y96.846 E0.07175
G1 X97.642 Y96.411 E0.01399
G1 X96.024 Y94.793 E0.07175
G1 X96.122 Y94.358 E0.01399
G1 X97.740 Y95.975 E0.07175
G1 X97.838 Y95.540 E0.01399
G1 X96.220 Y93.922 E0.07175
G1 X96.318 Y93.487 E0.01399
G1 X97.936 Y95.105 E0.07175
G1 X98.034 Y94.670 E0.01399
G1 X96.416 Y93.052 E0.07175
G1 X96.515 Y92.616 E0.01399
G1 X98.132 Y94.234 E0.07175
G1 X98.230 Y93.799 E0.01399
G1 X96.613 Y92.181 E0.07175
G1 X96.711 Y91.746 E0.01399
G1 X98.329 Y93.364 E0.07175
G1 X98.427 Y92.928 E0.01399
G1 X96.808 Y91.310 E0.07178
G1 X96.905 Y90.873 E0.01403
G1 X98.525 Y92.493 E0.07184
G1 X98.623 Y92.058 E0.01399
G1 X97.002 Y90.437 E0.07190
G1 X97.098 Y90.000 E0.01403
G1 X98.721 Y91.622 E0.07196
G1 X98.819 Y91.187 E0.01399
G1 X97.195 Y89.563 E0.07202
G1 X97.292 Y89.127 E0.01403
G1 X98.917 Y90.752 E0.07207
G1 X99.015 Y90.316 E0.01399
G1 X97.389 Y88.690 E0.07213
G1 X97.486 Y88.254 E0.01403
G1 X99.113 Y89.881 E0.07219
G1 X99.211 Y89.446 E0.01399
G1 X97.582 Y87.817 E0.07225
G1 X97.679 Y87.380 E0.01403
G1 X99.309 Y89.011 E0.07231
G1 X99.408 Y88.575 E0.01399
G1 X97.776 Y86.944 E0.07236
G1 X97.873 Y86.507 E0.01403
G1 X99.506 Y88.140 E0.07242
G1 X99.604 Y87.705 E0.01399
G1 X97.970 Y86.070 E0.07248
G1 X98.066 Y85.634 E0.01403
G1 X99.702 Y87.269 E0.07254
G1 X99.800 Y86.834 E0.01399
G1 X98.266 Y85.300 E0.06805
G1 X98.592 Y85.093 E0.01213
G1 X100.010 Y86.510 E0.06285
G1 X100.335 Y86.303 E0.01212
G1 X98.919 Y84.886 E0.06281
G1 X99.246 Y84.680 E0.01213
G1 X100.661 Y86.095 E0.06276
G1 X100.987 Y85.887 E0.01212
G1 X99.573 Y84.473 E0.06272
G1 X99.900 Y84.267 E0.01213
G1 X101.313 Y85.680 E0.06268
G1 X101.639 Y85.472 E0.01212
G1 X100.226 Y84.060 E0.06263
G1 X100.553 Y83.853 E0.01213
G1 X101.964 Y85.265 E0.06259
G1 X102.290 Y85.057 E0.01212
G1 X100.880 Y83.647 E0.06255
G1 X101.207 Y83.440 E0.01213
G1 X102.616 Y84.850 E0.06250
G1 X102.942 Y84.642 E0.01212
G1 X101.534 Y83.234 E0.06246
G1 X101.860 Y83.027 E0.01213
G1 X103.268 Y84.434 E0.06242
G1 X103.594 Y84.227 E0.01212
G1 X102.187 Y82.820 E0.06237
G1 X102.514 Y82.614 E0.01213
G1 X103.919 Y84.019 E0.06233
G1 X104.245 Y83.812 E0.01212
G1 X102.841 Y82.407 E0.06229
G1 X103.168 Y82.201 E0.01213
G1 X104.571 Y83.604 E0.06225
G1 X104.897 Y83.397 E0.01212
G1 X103.495 Y81.994 E0.06220
G1 X103.821 Y81.788 E0.01213
G1 X105.223 Y83.189 E0.06217
G1 X105.550 Y82.983 E0.01213
G1 X104.148 Y81.581 E0.06217
G1 X104.475 Y81.374 E0.01213
G1 X105.877 Y82.776 E0.06217
G1 X106.203 Y82.569 E0.01213
G1 X104.802 Y81.168 E0.06217
G1 X105.129 Y80.961 E0.01213
G1 X106.530 Y82.363 E0.06217
G1 X106.857 Y82.156 E0.01213
G1 X105.455 Y80.755 E0.06217
G1 X105.782 Y80.548 E0.01213
G1 X107.184 Y81.950 E0.06217
G1 X107.511 Y81.743 E0.01213
G1 X106.109 Y80.341 E0.06217
G1 X106.436 Y80.135 E0.01213
G1 X107.837 Y81.536 E0.06217
G1 X108.164 Y81.330 E0.01213
G1 X106.763 Y79.928 E0.06217
G1 X107.089 Y79.722 E0.01213
G1 X108.491 Y81.123 E0.06217
G1 X108.818 Y80.917 E0.01213
M73 Q0 S107
G1 X107.416 Y79.515 E0.06217
G1 X107.743 Y79.308 E0.01213
G1 X109.145 Y80.710 E0.06217
G1 X109.471 Y80.503 E0.01213
G1 X108.070 Y79.102 E0.06217
G1 X108.397 Y78.895 E0.01213
M73 P0 R106
G1 X109.798 Y80.297 E0.06217
G1 X110.125 Y80.090 E0.01213
G1 X108.723 Y78.689 E0.06217
G1 X109.050 Y78.482 E0.01213
G1 X110.452 Y79.884 E0.06217
G1 X110.779 Y79.677 E0.01213
G1 X109.377 Y78.275 E0.06217
G1 X109.704 Y78.069 E0.01213
G1 X111.105 Y79.470 E0.06217
G1 X111.432 Y79.264 E0.01213
G1 X110.031 Y77.862 E0.06217
G1 X110.357 Y77.656 E0.01213
G1 X111.759 Y79.057 E0.06217
G1 X112.086 Y78.851 E0.01213
G1 X110.684 Y77.449 E0.06217
G1 X111.011 Y77.242 E0.01213
G1 X112.413 Y78.644 E0.06217
G1 X112.740 Y78.437 E0.01213
G1 X111.338 Y77.036 E0.06217
G1 X111.665 Y76.829 E0.01213
G1 X113.066 Y78.231 E0.06217
G1 X113.393 Y78.024 E0.01213
G1 X111.991 Y76.623 E0.06217
G1 X112.318 Y76.416 E0.01213
G1 X113.720 Y77.818 E0.06217
G1 X114.047 Y77.611 E0.01213
G1 X112.645 Y76.209 E0.06217
G1 X112.972 Y76.003 E0.01213
G1 X114.374 Y77.404 E0.06217
G1 X114.700 Y77.198 E0.01213
G1 X113.299 Y75.796 E0.06217
G1 X113.625 Y75.590 E0.01213
G1 X115.027 Y76.991 E0.06217
G1 X115.354 Y76.785 E0.01213
G1 X113.952 Y75.383 E0.06217
G1 X114.279 Y75.176 E0.01213
G1 X115.681 Y76.578 E0.06217
G1 X116.008 Y76.371 E0.01213
G1 X114.606 Y74.970 E0.06217
G1 X114.932 Y74.763 E0.01212
G1 X116.334 Y76.165 E0.06219
G1 X116.661 Y75.958 E0.01213
G1 X115.258 Y74.555 E0.06223
G1 X115.584 Y74.348 E0.01212
G1 X116.988 Y75.752 E0.06227
G1 X117.315 Y75.545 E0.01213
G1 X115.910 Y74.140 E0.06232
G1 X116.236 Y73.932 E0.01212
G1 X117.642 Y75.338 E0.06236
G1 X117.968 Y75.132 E0.01213
G1 X116.561 Y73.725 E0.06240
G1 X116.887 Y73.517 E0.01212
G1 X118.295 Y74.925 E0.06245
G1 X118.622 Y74.719 E0.01213
G1 X117.213 Y73.310 E0.06249
G1 X117.539 Y73.102 E0.01212
G1 X118.949 Y74.512 E0.06253
G1 X119.276 Y74.305 E0.01213
G1 X117.865 Y72.895 E0.06258
G1 X118.191 Y72.687 E0.01212
G1 X119.602 Y74.099 E0.06262
G1 X119.929 Y73.892 E0.01213
G1 X118.516 Y72.479 E0.06266
G1 X118.842 Y72.272 E0.01212
G1 X120.256 Y73.686 E0.06271
G1 X120.502 Y73.530 E0.00913
G1 X120.672 Y73.568 E0.00545
G1 X119.168 Y72.064 E0.06668
G1 X119.494 Y71.857 E0.01212
G1 X121.357 Y73.720 E0.08263
G1 X122.042 Y73.872 E0.02202
G1 X119.820 Y71.649 E0.09858
G1 X120.141 Y71.444 E0.01197
G1 X122.728 Y74.024 E0.11455
G1 X123.413 Y74.176 E0.02202
G1 X120.839 Y71.601 E0.11418
G1 X121.527 Y71.756 E0.02214
G1 X124.098 Y74.327 E0.11403
G1 X124.784 Y74.479 E0.02202
G1 X122.216 Y71.912 E0.11389
G1 X122.904 Y72.067 E0.02214
G1 X125.469 Y74.631 E0.11374
G1 X126.154 Y74.783 E0.02202
G1 X123.593 Y72.222 E0.11360
G1 X124.282 Y72.377 E0.02214
G1 X126.841 Y74.936 E0.11350
G1 X127.529 Y75.091 E0.02214
G1 X124.970 Y72.532 E0.11350
G1 X125.659 Y72.687 E0.02214
G1 X128.218 Y75.246 E0.11350
G1 X128.906 Y75.402 E0.02214
G1 X126.347 Y72.843 E0.11350
G1 X127.036 Y72.998 E0.02214
G1 X129.595 Y75.557 E0.11350
G1 X130.283 Y75.712 E0.02214
G1 X127.724 Y73.153 E0.11350
G1 X128.413 Y73.308 E0.02214
G1 X130.972 Y75.867 E0.11350
G1 X131.661 Y76.022 E0.02214
G1 X129.102 Y73.463 E0.11350
G1 X129.790 Y73.619 E0.02214
G1 X132.349 Y76.178 E0.11350
G1 X133.038 Y76.333 E0.02214
G1 X130.479 Y73.774 E0.11350
G1 X131.167 Y73.929 E0.02214
G1 X133.726 Y76.488 E0.11350
G1 X134.415 Y76.643 E0.02214
G1 X131.856 Y74.084 E0.11350
G1 X132.545 Y74.239 E0.02214
G1 X135.103 Y76.798 E0.11350
G1 X135.792 Y76.953 E0.02214
G1 X133.233 Y74.394 E0.11350
G1 X133.922 Y74.550 E0.02214
G1 X136.481 Y77.109 E0.11350
G1 X137.169 Y77.264 E0.02214
G1 X134.610 Y74.705 E0.11350
G1 X135.299 Y74.860 E0.02214
G1 X137.858 Y77.419 E0.11350
G1 X138.546 Y77.574 E0.02214
G1 X135.987 Y75.015 E0.11350
G1 X136.676 Y75.170 E0.02214
G1 X139.235 Y77.729 E0.11350
G1 X139.924 Y77.884 E0.02214
G1 X137.365 Y75.326 E0.11350
G1 X138.053 Y75.481 E0.02214
G1 X140.612 Y78.040 E0.11350
G1 X141.301 Y78.195 E0.02214
G1 X138.742 Y75.636 E0.11350
G1 X139.430 Y75.791 E0.02213
G1 X141.989 Y78.350 E0.11350
G1 X142.678 Y78.505 E0.02214
G1 X140.115 Y75.943 E0.11365
G1 X140.801 Y76.095 E0.02202
G1 X143.591 Y78.885 E0.12375
G1 F8640
G1 X140.801 Y76.095 E-0.91111
G1 X140.115 Y75.943 E-0.16209
G1 X140.902 Y76.729 E-0.25680
G1 E-0.07000 F2100.00000
G1 Z0.400 F10800.000
G1 X145.145 Y80.439
G1 Z0.200
G1 E1.40000 F2100.00000
G1 F1200
G1 X152.525 Y87.819 E0.32732
G1 F8640
G1 X148.452 Y83.746 E-1.33000
G1 E-0.07000 F2100.00000
G1 Z0.400 F10800.000
G1 X151.606 Y86.367
G1 Z0.200
G1 E1.40000 F2100.00000
G1 F1200
G1 X141.486 Y76.247 E0.44885
G1 X142.171 Y76.399 E0.02202
G1 X150.687 Y84.914 E0.37769
G1 F8640
G1 X146.614 Y80.841 E-1.33000
G1 E-0.07000 F2100.00000
G1 Z0.400 F10800.000
G1 X149.768 Y83.462
G1 Z0.200
G1 E1.40000 F2100.00000
G1 F1200
G1 X142.857 Y76.551 E0.30653
G1 X143.542 Y76.703 E0.02202
G1 X148.849 Y82.009 E0.23537
G1 F8640
G1 X144.776 Y77.936 E-1.33000
G1 E-0.07000 F2100.00000
G1 Z0.400 F10800.000
G1 X147.930 Y80.557
G1 Z0.200
G1 E1.40000 F2100.00000
G1 F1200
G1 X144.228 Y76.854 E0.16421
G1 X144.913 Y77.006 E0.02202
G1 X147.011 Y79.104 E0.09305
G1 F8640
G1 X144.913 Y77.006 E-0.68508
G1 X144.228 Y76.854 E-0.16209
G1 X145.706 Y78.333 E-0.48283
G1 E-0.07000 F2100.00000
G1 Z0.400 F10800.000
G1 X146.082 Y81.909
G1 Z0.200
G1 E1.40000 F2100.00000
G1 F1200
G1 X153.444 Y89.272 E0.32656
G1 F8640
G1 X149.371 Y85.199 E-1.33000
G1 E-0.07000 F2100.00000
G1 Z0.400 F10800.000
G1 X154.363 Y90.724
G1 Z0.200
G1 E1.40000 F2100.00000
G1 F1200
G1 X147.018 Y83.379 E0.32579
G1 F8640
G1 X151.091 Y87.452 E-1.33000
G1 E-0.07000 F2100.00000
G1 Z0.400 F10800.000
G1 X147.939 Y84.833
G1 Z0.200
G1 E1.40000 F2100.00000
G1 F1200
G1 X155.282 Y92.177 E0.32572
G1 X155.478 Y92.906 F10800.000
G1 F1200
G1 X148.855 Y86.283 E0.29374
G1 F8640
G1 X152.928 Y90.356 E-1.33000
G1 E-0.07000 F2100.00000
G1 Z0.400 F10800.000
G1 X149.772 Y87.733
G1 Z0.200
G1 E1.40000 F2100.00000
G1 F1200
G1 X155.025 Y92.986 E0.23297
G1 X154.571 Y93.066 F10800.000
G1 F1200
G1 X150.689 Y89.183 E0.17220
G1 F8640
G1 X154.571 Y93.066 E-1.26781
G1 E-0.13219 F2100.00000
G1 Z0.400 F10800.000
G1 X151.606 Y90.633
G1 Z0.200
G1 E1.40000 F2100.00000
G1 F1200
G1 X154.118 Y93.146 E0.11143
G1 X153.664 Y93.226 F10800.000
G1 F1200
G1 X152.522 Y92.084 E0.05065
G1 F8640
G1 X153.664 Y93.226 E-0.37294
G1 E-1.02706 F2100.00000
G1 Z0.400 F10800.000
G1 X144.066 Y130.567
G1 Z0.200
G1 E1.40000 F2100.00000
G1 F1200
G1 X142.788 Y129.288 E0.05670
G1 X142.461 Y129.495 E0.01213
G1 X143.869 Y130.903 E0.06244
G1 X143.542 Y131.110 E0.01212
G1 X142.134 Y129.702 E0.06245
G1 X141.808 Y129.908 E0.01213
G1 X143.216 Y131.317 E0.06247
G1 X142.889 Y131.524 E0.01212
G1 X141.481 Y130.115 E0.06248
G1 X141.154 Y130.322 E0.01213
G1 X142.563 Y131.731 E0.06249
G1 X142.236 Y131.938 E0.01212
G1 X140.827 Y130.528 E0.06250
G1 X140.500 Y130.735 E0.01213
G1 X141.910 Y132.144 E0.06252
G1 X141.584 Y132.351 E0.01212
G1 X140.174 Y130.942 E0.06253
G1 X139.847 Y131.148 E0.01213
