; generated by PrusaSlicer 2.1.0+win64 on 2020-02-08 at 12:16:56 UTC

; 

; external perimeters extrusion width = 0.45mm
; perimeters extrusion width = 0.45mm
; infill extrusion width = 0.45mm
; solid infill extrusion width = 0.45mm
; top infill extrusion width = 0.40mm
; first layer extrusion width = 0.42mm

M73 P0 R30
M73 Q0 S30
M201 X1000 Y1000 Z1000 E5000 ; sets maximum accelerations, mm/sec^2
M203 X200 Y200 Z12 E120 ; sets maximum feedrates, mm/sec
M204 P1250 R1250 T1250 ; sets acceleration (P, T) and retract acceleration (R), mm/sec^2
M205 X8.00 Y8.00 Z0.40 E1.50 ; sets the jerk limits, mm/sec
M205 S0 T0 ; sets the minimum extruding and travel feed rate, mm/sec
M107
M862.3 P "MK3S" ; printer model check
M862.1 P0.4 ; nozzle diameter check
M115 U3.8.1 ; tell printer latest fw version
G90 ; use absolute coordinates
M83 ; extruder relative mode
M104 S240 ; set extruder temp
M140 S85 ; set bed temp
M190 S85 ; wait for bed temp
M109 S240 ; wait for extruder temp
G28 W ; home all without mesh bed level
G80 ; mesh bed leveling
G1 Y-3.0 F1000.0 ; go outside print area
G92 E0.0
G1 X60.0 E9.0 F1000.0 ; intro line
M73 Q0 S30
M73 P0 R30
G1 X100.0 E12.5 F1000.0 ; intro line
G92 E0.0
M221 S95
G21 ; set units to millimeters
G90 ; use absolute coordinates
M83 ; use relative distances for extrusion
M900 K45 ; Filament gcode
;BEFORE_LAYER_CHANGE
G92 E0.0
;0.2


G1 E-1.40000 F2100.00000
G1 Z0.200 F10800.000
;AFTER_LAYER_CHANGE
;0.2
G1 Z0.400
G1 X112.157 Y95.274
G1 Z0.200
G1 E1.40000 F2100.00000
M204 S1000
G1 F1200
G1 X112.822 Y94.671 E0.02814
G1 X121.489 Y89.412 E0.31787
G1 X122.161 Y89.147 E0.02263
G1 X123.123 Y89.020 E0.03044
G1 X123.715 Y89.090 E0.01869
G1 X133.532 Y91.493 E0.31689
G1 X134.106 Y91.726 E0.01943
G1 X134.723 Y92.154 E0.02353
G1 X135.329 Y92.822 E0.02827
G1 X140.572 Y101.462 E0.31688
G1 X140.823 Y102.046 E0.01992
G1 X140.959 Y102.795 E0.02389
G1 X140.915 Y103.692 E0.02814
G1 X138.514 Y113.505 E0.31677
G1 X138.283 Y114.089 E0.01968
G1 X137.860 Y114.704 E0.02341
G1 X137.182 Y115.327 E0.02888
G1 X128.542 Y120.570 E0.31688
G1 X127.958 Y120.822 E0.01992
G1 X127.205 Y120.959 E0.02402
G1 X126.308 Y120.915 E0.02814
G1 X116.495 Y118.514 E0.31677
G1 X115.911 Y118.283 E0.01968
G1 X115.296 Y117.860 E0.02341
G1 X114.673 Y117.182 E0.02888
G1 X109.430 Y108.542 E0.31688
G1 X109.178 Y107.958 E0.01992
G1 X109.041 Y107.205 E0.02402
G1 X109.085 Y106.308 E0.02814
G1 X111.487 Y96.491 E0.31689
G1 X111.723 Y95.901 E0.01992
G1 X112.123 Y95.323 E0.02202
G1 X112.431 Y95.538 F10800.000
G1 F1200
G1 X113.026 Y94.988 E0.02542
G1 X121.671 Y89.743 E0.31702
G1 X122.253 Y89.512 E0.01964
G1 X123.124 Y89.397 E0.02753
G1 X123.627 Y89.457 E0.01589
G1 X133.427 Y91.856 E0.31635
G1 X133.930 Y92.060 E0.01703
G1 X134.492 Y92.453 E0.02149
G1 X135.012 Y93.026 E0.02428
G1 X140.246 Y101.652 E0.31634
G1 X140.463 Y102.158 E0.01726
G1 X140.584 Y102.839 E0.02171
G1 X140.546 Y103.613 E0.02428
G1 X138.148 Y113.413 E0.31635
G1 X137.945 Y113.921 E0.01714
G1 X137.558 Y114.478 E0.02126
G1 X136.977 Y115.010 E0.02473
G1 X128.348 Y120.246 E0.31645
G1 X127.842 Y120.463 E0.01726
G1 X127.161 Y120.584 E0.02171
G1 X126.387 Y120.546 E0.02428
G1 X116.587 Y118.148 E0.31635
G1 X116.079 Y117.945 E0.01714
G1 X115.522 Y117.558 E0.02126
G1 X114.990 Y116.977 E0.02473
G1 X109.754 Y108.348 E0.31645
G1 X109.537 Y107.842 E0.01726
G1 X109.416 Y107.161 E0.02171
G1 X109.454 Y106.387 E0.02428
G1 X111.852 Y96.587 E0.31635
G1 X112.057 Y96.076 E0.01726
G1 X112.397 Y95.588 E0.01867
G1 F8640
G1 X113.026 Y94.988 E-0.20076
G1 X117.208 Y92.451 E-1.12924
G1 E-0.07000 F2100.00000
G1 Z0.400 F10800.000
G1 X115.504 Y98.232
G1 Z0.200
G1 E1.40000 F2100.00000
G1 F1200
G1 X123.070 Y93.500 E0.27980
G1 X131.767 Y95.504 E0.27984
G1 X136.500 Y103.071 E0.27982
G1 X134.496 Y111.767 E0.27982
G1 X126.929 Y116.500 E0.27982
G1 X118.233 Y114.496 E0.27982
G1 X113.500 Y106.929 E0.27982
G1 X115.491 Y98.290 E0.27796
G1 X115.837 Y98.469 F10800.000
G1 F1200
G1 X123.138 Y93.903 E0.27002
G1 X131.530 Y95.837 E0.27003
G1 X136.097 Y103.138 E0.27003
G1 X134.163 Y111.530 E0.27003
G1 X126.862 Y116.097 E0.27003
G1 X118.470 Y114.163 E0.27003
G1 X113.903 Y106.862 E0.27003
G1 X115.823 Y98.528 E0.26815
G1 X115.671 Y98.105 F10800.000
G1 F8640
G1 X120.692 Y95.450 E-1.33000
G1 E-0.07000 F2100.00000
G1 Z0.400 F10800.000
G1 X114.487 Y97.508
G1 Z0.200
G1 E1.40000 F2100.00000
G1 F1200
G1 X122.863 Y92.269 E0.30977
G1 X132.492 Y94.487 E0.30982
G1 X137.732 Y102.864 E0.30978
G1 X135.513 Y112.492 E0.30980
G1 X127.136 Y117.732 E0.30980
G1 X117.508 Y115.513 E0.30980
G1 X112.268 Y107.136 E0.30980
G1 X114.474 Y97.566 E0.30792
G1 X114.155 Y97.271 F10800.000
G1 F1200
G1 X122.796 Y91.866 E0.31958
G1 X132.729 Y94.155 E0.31960
G1 X138.134 Y102.796 E0.31959
G1 X135.845 Y112.729 E0.31959
G1 X127.204 Y118.134 E0.31959
G1 X117.271 Y115.845 E0.31959
G1 X111.866 Y107.204 E0.31959
G1 X114.141 Y97.329 E0.31771
G1 X114.553 Y97.309 F10800.000
G1 F8640
G1 X119.012 Y94.255 E-1.33000
G1 E-0.07000 F2100.00000
G1 Z0.400 F10800.000
G1 X112.461 Y106.805
G1 Z0.200
G1 E1.40000 F2100.00000
G1 F1200
G1 X114.673 Y109.017 E0.09956
G1 F8640
G1 X112.461 Y106.805 E-0.72233
G1 E-0.67767 F2100.00000
G1 Z0.400 F10800.000
G1 X113.559 Y108.986
G1 Z0.200
G1 E1.40000 F2100.00000
G1 F1200
G1 X116.481 Y111.908 E0.13150
G1 F8640
G1 X113.559 Y108.986 E-0.95406
G1 E-0.44594 F2100.00000
G1 Z0.400 F10800.000
G1 X115.367 Y111.876
G1 Z0.200
G1 E1.40000 F2100.00000
G1 F1200
G1 X119.074 Y115.584 E0.16687
G1 X119.777 Y115.746 E0.02297
G1 X118.993 Y114.961 E0.03532
G1 X119.696 Y115.123 E0.02297
G1 X120.481 Y115.908 E0.03532
G1 X121.184 Y116.070 E0.02297
G1 X120.399 Y115.285 E0.03532
G1 X121.103 Y115.447 E0.02297
G1 X121.888 Y116.232 E0.03532
G1 X122.591 Y116.394 E0.02297
G1 X121.806 Y115.609 E0.03532
G1 X122.510 Y115.771 E0.02297
G1 X123.294 Y116.556 E0.03532
G1 X123.998 Y116.718 E0.02297
G1 X123.213 Y115.934 E0.03532
G1 X123.916 Y116.096 E0.02297
G1 X124.701 Y116.880 E0.03532
G1 X125.404 Y117.042 E0.02297
G1 X124.620 Y116.258 E0.03532
G1 X125.323 Y116.420 E0.02297
G1 X126.108 Y117.204 E0.03532
G1 X126.811 Y117.367 E0.02297
G1 X126.027 Y116.582 E0.03532
G1 X126.730 Y116.744 E0.02297
G1 X127.289 Y117.303 E0.02514
G1 X127.622 Y117.094 E0.01250
G1 X127.195 Y116.667 E0.01922
G1 X127.528 Y116.459 E0.01250
G1 X127.955 Y116.886 E0.01922
G1 X128.288 Y116.678 E0.01250
G1 X127.861 Y116.251 E0.01922
G1 X128.194 Y116.043 E0.01250
G1 X128.621 Y116.469 E0.01922
G1 X128.954 Y116.261 E0.01250
G1 X128.527 Y115.834 E0.01922
G1 X128.860 Y115.626 E0.01250
G1 X129.287 Y116.053 E0.01922
G1 X129.620 Y115.845 E0.01250
G1 X129.193 Y115.418 E0.01922
G1 X129.526 Y115.209 E0.01250
G1 X129.953 Y115.636 E0.01922
G1 X130.286 Y115.428 E0.01250
G1 X129.859 Y115.001 E0.01922
G1 X130.192 Y114.793 E0.01250
G1 X130.619 Y115.220 E0.01922
G1 X130.952 Y115.012 E0.01250
G1 X130.525 Y114.585 E0.01922
G1 X130.858 Y114.376 E0.01250
G1 X131.285 Y114.803 E0.01922
G1 X131.618 Y114.595 E0.01250
G1 X131.191 Y114.168 E0.01922
G1 X131.524 Y113.960 E0.01250
G1 X131.951 Y114.387 E0.01922
G1 X132.284 Y114.178 E0.01250
G1 X131.857 Y113.751 E0.01922
G1 X132.190 Y113.543 E0.01250
G1 X132.617 Y113.970 E0.01922
G1 X132.950 Y113.762 E0.01250
G1 X132.523 Y113.335 E0.01922
G1 X132.856 Y113.127 E0.01250
G1 X133.283 Y113.554 E0.01922
G1 X133.616 Y113.345 E0.01250
G1 X133.189 Y112.918 E0.01922
G1 X133.522 Y112.710 E0.01250
G1 X133.949 Y113.137 E0.01922
G1 X134.282 Y112.929 E0.01250
G1 X133.855 Y112.502 E0.01922
G1 X134.188 Y112.293 E0.01250
G1 X134.615 Y112.720 E0.01922
G1 X134.948 Y112.512 E0.01250
G1 X134.521 Y112.085 E0.01922
G1 X134.745 Y111.945 E0.00841
G1 X134.778 Y111.801 E0.00470
G1 X135.269 Y112.292 E0.02209
G1 X135.370 Y111.852 E0.01437
G1 X134.880 Y111.361 E0.02209
G1 X134.981 Y110.921 E0.01437
G1 X135.472 Y111.412 E0.02209
G1 X135.573 Y110.972 E0.01437
G1 X135.082 Y110.481 E0.02209
G1 X135.184 Y110.041 E0.01437
G1 X135.674 Y110.532 E0.02209
G1 X135.776 Y110.092 E0.01437
G1 X135.285 Y109.602 E0.02209
G1 X135.386 Y109.162 E0.01437
G1 X135.877 Y109.652 E0.02209
G1 X135.979 Y109.212 E0.01437
G1 X135.488 Y108.722 E0.02209
G1 X135.589 Y108.282 E0.01437
G1 X136.080 Y108.773 E0.02209
G1 X136.181 Y108.333 E0.01437
G1 X135.691 Y107.842 E0.02209
G1 X135.792 Y107.402 E0.01437
G1 X136.283 Y107.893 E0.02209
G1 X136.384 Y107.453 E0.01437
G1 X135.893 Y106.962 E0.02209
G1 X135.995 Y106.522 E0.01437
G1 X136.485 Y107.013 E0.02209
G1 X136.587 Y106.573 E0.01437
G1 X136.096 Y106.082 E0.02209
G1 X136.197 Y105.642 E0.01437
G1 X136.688 Y106.133 E0.02209
G1 X136.789 Y105.693 E0.01437
G1 X136.299 Y105.202 E0.02209
G1 X136.400 Y104.762 E0.01437
G1 X136.891 Y105.253 E0.02209
G1 X136.992 Y104.813 E0.01437
G1 X136.501 Y104.322 E0.02209
G1 X136.603 Y103.883 E0.01437
G1 X137.094 Y104.373 E0.02209
G1 X137.195 Y103.933 E0.01437
G1 X136.704 Y103.443 E0.02209
G1 X136.802 Y103.020 E0.01380
G1 X136.766 Y102.963 E0.00214
G1 X137.438 Y103.635 E0.03025
G1 X137.539 Y103.195 F10800.000
G1 F1200
G1 X135.328 Y100.983 E0.09954
G1 F8640
G1 X137.539 Y103.195 E-0.72219
G1 E-0.67781 F2100.00000
G1 Z0.400 F10800.000
G1 X136.442 Y101.015
G1 Z0.200
G1 E1.40000 F2100.00000
G1 F1200
G1 X133.520 Y98.093 E0.13150
G1 F8640
G1 X136.442 Y101.015 E-0.95406
G1 E-0.44594 F2100.00000
G1 Z0.400 F10800.000
G1 X134.634 Y98.124
G1 Z0.200
G1 E1.40000 F2100.00000
G1 F1200
G1 X130.929 Y94.419 E0.16675
G1 X131.631 Y94.580 E0.02292
G1 X133.730 Y96.679 E0.09447
G1 F8640
G1 X131.631 Y94.580 E-0.68540
G1 X130.929 Y94.419 E-0.16631
G1 X132.394 Y95.884 E-0.47829
G1 E-0.07000 F2100.00000
G1 Z0.400 F10800.000
G1 X132.616 Y96.648
G1 Z0.200
G1 E1.40000 F2100.00000
G1 F1200
G1 X135.538 Y99.570 E0.13150
G1 F8640
G1 X132.616 Y96.648 E-0.95407
G1 E-0.44593 F2100.00000
G1 Z0.400 F10800.000
G1 X134.424 Y99.538
G1 Z0.200
G1 E1.40000 F2100.00000
G1 F1200
G1 X137.345 Y102.460 E0.13150
G1 F8640
G1 X134.424 Y99.538 E-0.95406
G1 E-0.44594 F2100.00000
G1 Z0.400 F10800.000
G1 X131.233 Y95.265
G1 Z0.200
G1 E1.40000 F2100.00000
G1 F1200
G1 X130.227 Y94.259 E0.04530
G1 X129.525 Y94.098 E0.02292
G1 X130.304 Y94.877 E0.03506
G1 X129.600 Y94.715 E0.02297
G1 X128.823 Y93.937 E0.03500
G1 X128.120 Y93.776 E0.02292
G1 X128.897 Y94.553 E0.03494
G1 X128.193 Y94.391 E0.02297
G1 X127.418 Y93.615 E0.03489
G1 X126.716 Y93.455 E0.02292
G1 X127.490 Y94.228 E0.03483
G1 X126.787 Y94.066 E0.02297
G1 X126.012 Y93.292 E0.03486
G1 X125.307 Y93.128 E0.02305
G1 X126.083 Y93.904 E0.03495
G1 X125.380 Y93.742 E0.02297
G1 X124.601 Y92.964 E0.03504
G1 X123.896 Y92.799 E0.02305
G1 X124.677 Y93.580 E0.03514
G1 X123.973 Y93.418 E0.02297
G1 X123.190 Y92.635 E0.03523
G1 X122.914 Y92.571 E0.00904
G1 X122.711 Y92.697 E0.00760
G1 X123.270 Y93.256 E0.02514
G1 X123.019 Y93.198 E0.00818
G1 X122.805 Y93.333 E0.00805
G1 X122.378 Y92.906 E0.01921
G1 X122.045 Y93.114 E0.01250
G1 X122.473 Y93.541 E0.01923
G1 X122.140 Y93.750 E0.01250
G1 X121.712 Y93.322 E0.01925
G1 X121.379 Y93.531 E0.01250
G1 X121.807 Y93.959 E0.01926
G1 X121.475 Y94.167 E0.01250
G1 X121.046 Y93.739 E0.01928
G1 X120.713 Y93.947 E0.01250
G1 X121.142 Y94.376 E0.01930
G1 X120.809 Y94.585 E0.01250
G1 X120.380 Y94.155 E0.01932
G1 X120.047 Y94.364 E0.01250
G1 X120.477 Y94.793 E0.01933
G1 X120.144 Y95.002 E0.01250
G1 X119.714 Y94.572 E0.01935
G1 X119.381 Y94.780 E0.01250
G1 X119.811 Y95.211 E0.01937
G1 X119.479 Y95.419 E0.01250
G1 X119.048 Y94.989 E0.01938
G1 X118.715 Y95.197 E0.01250
G1 X119.146 Y95.628 E0.01940
G1 X118.814 Y95.837 E0.01250
G1 X118.382 Y95.405 E0.01942
G1 X118.049 Y95.613 E0.01250
G1 X118.481 Y96.045 E0.01943
G1 X118.290 Y96.165 E0.00718
G1 X118.148 Y96.253 E0.00532
G1 X117.716 Y95.822 E0.01943
G1 X117.383 Y96.030 E0.01250
G1 X117.814 Y96.461 E0.01941
G1 X117.481 Y96.669 E0.01251
G1 X117.050 Y96.238 E0.01938
G1 X116.717 Y96.447 E0.01250
G1 X117.147 Y96.876 E0.01935
G1 X116.813 Y97.084 E0.01251
G1 X116.384 Y96.655 E0.01932
G1 X116.051 Y96.863 E0.01250
G1 X116.480 Y97.292 E0.01929
G1 X116.146 Y97.499 E0.01251
G1 X115.718 Y97.071 E0.01927
G1 X115.385 Y97.280 E0.01250
G1 X115.812 Y97.707 E0.01924
G1 X115.479 Y97.915 E0.01251
G1 X115.052 Y97.488 E0.01921
G1 X114.736 Y97.685 E0.01185
G1 X114.731 Y97.708 E0.00075
G1 X115.222 Y98.199 E0.02209
G1 X115.120 Y98.639 E0.01437
G1 X114.630 Y98.148 E0.02209
G1 X114.528 Y98.588 E0.01437
G1 X115.019 Y99.079 E0.02209
G1 X114.918 Y99.519 E0.01437
G1 X114.427 Y99.028 E0.02209
G1 X114.326 Y99.468 E0.01437
G1 X114.816 Y99.959 E0.02209
G1 X114.715 Y100.399 E0.01437
G1 X114.224 Y99.908 E0.02209
G1 X114.123 Y100.348 E0.01437
G1 X114.614 Y100.839 E0.02209
G1 X114.512 Y101.279 E0.01437
G1 X114.021 Y100.788 E0.02209
G1 X113.920 Y101.228 E0.01437
G1 X114.411 Y101.718 E0.02209
G1 X114.309 Y102.158 E0.01437
G1 X113.819 Y101.668 E0.02209
G1 X113.717 Y102.108 E0.01437
G1 X114.208 Y102.598 E0.02209
G1 X114.107 Y103.038 E0.01437
G1 X113.616 Y102.547 E0.02209
G1 X113.515 Y102.987 E0.01437
G1 X114.005 Y103.478 E0.02209
G1 X113.904 Y103.918 E0.01437
G1 X113.413 Y103.427 E0.02209
G1 X113.312 Y103.867 E0.01437
G1 X113.803 Y104.358 E0.02209
G1 X113.701 Y104.798 E0.01437
G1 X113.210 Y104.307 E0.02209
G1 X113.109 Y104.747 E0.01437
G1 X113.600 Y105.238 E0.02209
G1 X113.498 Y105.678 E0.01437
G1 X113.008 Y105.187 E0.02209
G1 X112.906 Y105.627 E0.01437
G1 X113.397 Y106.118 E0.02209
G1 X113.296 Y106.558 E0.01437
G1 X112.805 Y106.067 E0.02209
G1 X112.704 Y106.507 E0.01437
G1 X113.769 Y107.572 E0.04794
G1 F8640
G1 X112.704 Y106.507 E-0.34785
G1 X112.805 Y106.067 E-0.10424
G1 X113.296 Y106.558 E-0.16025
G1 X113.397 Y106.118 E-0.10424
G1 X112.906 Y105.627 E-0.16025
G1 X113.008 Y105.187 E-0.10424
G1 X113.498 Y105.678 E-0.16025
G1 X113.600 Y105.238 E-0.10424
G1 X113.341 Y104.979 E-0.08443
G1 E-0.07000 F2100.00000
G1 Z0.400 F10800.000
G1 X112.655 Y107.541
G1 Z0.200
G1 E1.40000 F2100.00000
G1 F1200
G1 X115.577 Y110.462 E0.13150
G1 F8640
G1 X112.655 Y107.541 E-0.95406
G1 E-0.44594 F2100.00000
G1 Z0.400 F10800.000
G1 X114.463 Y110.431
G1 Z0.200
G1 E1.40000 F2100.00000
G1 F1200
G1 X117.384 Y113.353 E0.13150
G1 F8640
G1 X114.463 Y110.431 E-0.95407
G1 E-0.44593 F2100.00000
G1 Z0.400 F10800.000
G1 X116.270 Y113.321
G1 Z0.200
G1 E1.40000 F2100.00000
G1 F1200
G1 X118.597 Y115.648 E0.10471
;BEFORE_LAYER_CHANGE
G92 E0.0
;0.35


G1 F8640
G1 X116.270 Y113.321 E-0.75969
G1 E-0.64031 F2100.00000
G1 Z0.400 F10800.000
;AFTER_LAYER_CHANGE
;0.35
M104 S250 ; set temperature
M140 S90 ; set bed temperature
G1 X115.296 Y117.860
G1 Z0.350
G1 E1.40000 F2100.00000
G1 F1864
G1 X114.673 Y117.182 E0.02227
G1 X109.430 Y108.542 E0.24442
G1 X109.178 Y107.958 E0.01537
G1 X109.041 Y107.205 E0.01852
G1 X109.085 Y106.308 E0.02171
G1 X111.487 Y96.491 E0.24443
G1 X111.723 Y95.901 E0.01537
G1 X112.157 Y95.274 E0.01844
G1 X112.822 Y94.671 E0.02171
G1 X121.489 Y89.412 E0.24519
G1 X122.161 Y89.147 E0.01746
G1 X123.123 Y89.020 E0.02348
G1 X123.715 Y89.090 E0.01442
G1 X133.532 Y91.493 E0.24443
G1 X134.106 Y91.726 E0.01499
G1 X134.723 Y92.154 E0.01815
G1 X135.329 Y92.822 E0.02180
G1 X140.572 Y101.462 E0.24442
G1 X140.823 Y102.046 E0.01537
G1 X140.959 Y102.795 E0.01843
G1 X140.915 Y103.692 E0.02171
G1 X138.514 Y113.505 E0.24434
G1 X138.283 Y114.089 E0.01518
G1 X137.860 Y114.704 E0.01806
G1 X137.182 Y115.327 E0.02227
G1 X128.542 Y120.570 E0.24442
G1 X127.958 Y120.822 E0.01537
G1 X127.205 Y120.959 E0.01852
G1 X126.308 Y120.915 E0.02171
G1 X116.495 Y118.514 E0.24434
G1 X115.911 Y118.283 E0.01518
G1 X115.345 Y117.894 E0.01660
G1 F8640
G1 X114.673 Y117.182 E-0.22618
G1 X112.193 Y113.095 E-1.10382
G1 E-0.07000 F2100.00000
G1 Z0.550 F10800.000
G1 X118.060 Y114.445
G1 Z0.350
G1 E1.40000 F2100.00000
M204 S800
G1 F1864
G1 X113.414 Y106.771 E0.23374
G1 X115.555 Y98.059 E0.23375
G1 X123.228 Y93.414 E0.23371
G1 X131.940 Y95.555 E0.23376
G1 X136.586 Y103.229 E0.23374
G1 X134.445 Y111.940 E0.23374
G1 X126.771 Y116.586 E0.23374
G1 X118.118 Y114.459 E0.23217
M204 S1000
G1 X118.327 Y114.081 F10800.000
M204 S800
G1 F1500
G1 X113.861 Y106.703 E0.22472
G1 X115.920 Y98.327 E0.22472
G1 X123.297 Y93.861 E0.22471
G1 X131.673 Y95.919 E0.22473
G1 X136.139 Y103.297 E0.22472
G1 X134.081 Y111.673 E0.22472
G1 X126.703 Y116.139 E0.22472
G1 X118.386 Y114.095 E0.22316
M204 S1000
