; generated by PrusaSlicer 2.1.0+win64 on 2020-02-08 at 12:20:15 UTC

; 

; external perimeters extrusion width = 0.45mm
; perimeters extrusion width = 0.45mm
; infill extrusion width = 0.45mm
; solid infill extrusion width = 0.45mm
; top infill extrusion width = 0.40mm
; first layer extrusion width = 0.42mm

M73 P0 R100
M73 Q0 S100
M201 X1000 Y1000 Z1000 E5000 ; sets maximum accelerations, mm/sec^2
M203 X200 Y200 Z12 E120 ; sets maximum feedrates, mm/sec
M204 P1250 R1250 T1250 ; sets acceleration (P, T) and retract acceleration (R), mm/sec^2
M205 X8.00 Y8.00 Z0.40 E1.50 ; sets the jerk limits, mm/sec
M205 S0 T0 ; sets the minimum extruding and travel feed rate, mm/sec
M107
M862.3 P "MK3S" ; printer model check
M862.1 P0.4 ; nozzle diameter check
M115 U3.8.1 ; tell printer latest fw version
G90 ; use absolute coordinates
M83 ; extruder relative mode
M104 S240 ; set extruder temp
M140 S85 ; set bed temp
M190 S85 ; wait for bed temp
M109 S240 ; wait for extruder temp
G28 W ; home all without mesh bed level
G80 ; mesh bed leveling
G1 Y-3.0 F1000.0 ; go outside print area
G92 E0.0
G1 X60.0 E9.0 F1000.0 ; intro line
M73 Q0 S100
M73 P0 R100
G1 X100.0 E12.5 F1000.0 ; intro line
G92 E0.0
M221 S95
G21 ; set units to millimeters
G90 ; use absolute coordinates
M83 ; use relative distances for extrusion
M900 K45 ; Filament gcode
;BEFORE_LAYER_CHANGE
G92 E0.0
;0.2


G1 E-1.40000 F2100.00000
G1 Z0.200 F10800.000
;AFTER_LAYER_CHANGE
;0.2
G1 Z0.400
G1 X99.668 Y86.234
G1 Z0.200
G1 E1.40000 F2100.00000
M204 S1000
G1 F1200
G1 X100.263 Y85.674 E0.02563
G1 X119.546 Y73.575 E0.71377
G1 X120.136 Y73.324 E0.02010
G1 X120.943 Y73.211 E0.02555
G1 X121.421 Y73.265 E0.01510
G1 X143.587 Y78.339 E0.71296
G1 X144.280 Y78.633 E0.02360
G1 X144.797 Y79.022 E0.02030
G1 X145.150 Y79.450 E0.01737
G1 X154.168 Y93.885 E0.53368
G1 X154.474 Y94.524 E0.02221
G1 X154.597 Y94.978 E0.01475
G1 X154.619 Y95.473 E0.01555
G1 X154.529 Y95.961 E0.01555
G1 X144.406 Y128.331 E1.06342
G1 X144.100 Y128.749 E0.01623
G1 X143.701 Y129.085 E0.01635
G1 X132.121 Y136.407 E0.42957
G1 X131.633 Y136.637 E0.01692
G1 X131.042 Y136.762 E0.01894
G1 X130.225 Y136.737 E0.02563
G1 X108.049 Y131.660 E0.71330
G1 X107.556 Y131.480 E0.01646
G1 X107.066 Y131.161 E0.01835
G1 X106.494 Y130.557 E0.02608
G1 X94.402 Y111.286 E0.71331
G1 X94.180 Y110.806 E0.01658
G1 X94.058 Y110.223 E0.01870
G1 X94.083 Y109.405 E0.02563
G1 X99.159 Y87.229 E0.71330
G1 X99.341 Y86.733 E0.01658
G1 X99.635 Y86.284 E0.01681
G1 F8640
G1 X100.263 Y85.674 E-0.20226
G1 X104.400 Y83.078 E-1.12774
G1 E-0.07000 F2100.00000
G1 Z0.400 F10800.000
G1 X101.811 Y88.094
G1 Z0.200
G1 E1.40000 F2100.00000
G1 F1200
G1 X116.161 Y79.022 E0.53231
G1 X120.797 Y76.069 E0.17235
G1 X137.359 Y79.801 E0.53232
G1 X142.726 Y80.991 E0.17236
G1 X151.335 Y94.597 E0.50482
G1 X148.661 Y95.068 E0.08513
G1 X141.154 Y83.222 E0.43973
G1 X126.357 Y79.887 E0.47560
G1 X121.263 Y78.758 E0.16360
G1 X108.442 Y86.863 E0.47557
G1 X104.041 Y89.666 E0.16360
G1 X100.707 Y104.463 E0.47557
G1 X99.577 Y109.557 E0.16360
G1 X107.682 Y122.378 E0.47557
G1 X110.486 Y126.778 E0.16360
G1 X125.282 Y130.113 E0.47557
G1 X130.377 Y131.242 E0.16361
G1 X140.423 Y124.888 E0.37271
G1 X141.679 Y127.064 E0.07878
G1 X130.843 Y133.931 E0.40224
G1 X114.280 Y130.199 E0.53234
G1 X108.914 Y129.009 E0.17235
G1 X99.842 Y114.659 E0.53231
G1 X96.888 Y110.023 E0.17235
G1 X100.621 Y93.461 E0.53232
G1 X101.798 Y88.153 E0.17047
G1 X101.476 Y87.859 F10800.000
G1 F1200
G1 X115.959 Y78.704 E0.53721
G1 X120.727 Y75.666 E0.17725
G1 X137.441 Y79.433 E0.53722
G1 X142.961 Y80.657 E0.17725
G1 X151.954 Y94.870 E0.52738
G1 X148.478 Y95.483 E0.11068
G1 X140.919 Y83.555 E0.44276
G1 X126.275 Y80.255 E0.47069
G1 X121.333 Y79.160 E0.15871
G1 X108.644 Y87.181 E0.47068
G1 X104.375 Y89.901 E0.15871
G1 X101.075 Y104.545 E0.47068
G1 X99.979 Y109.487 E0.15871
G1 X108.001 Y122.176 E0.47068
G1 X110.720 Y126.445 E0.15871
G1 X125.365 Y129.745 E0.47068
G1 X130.307 Y130.840 E0.15871
G1 X140.553 Y124.360 E0.38014
G1 X142.187 Y127.189 E0.10244
G1 X130.913 Y134.334 E0.41849
G1 X114.198 Y130.567 E0.53723
G1 X108.679 Y129.343 E0.17725
G1 X99.524 Y114.861 E0.53721
G1 X96.486 Y110.093 E0.17725
G1 X100.253 Y93.378 E0.53722
G1 X101.463 Y87.918 E0.17537
G1 X101.867 Y87.947 F10800.000
G1 F8640
G1 X106.325 Y84.828 E-1.33000
G1 E-0.07000 F2100.00000
G1 Z0.400 F10800.000
G1 X100.219 Y110.784
G1 Z0.200
G1 E1.40000 F2100.00000
G1 F1200
G1 X97.598 Y108.162 E0.11695
G1 X97.696 Y107.724 E0.01416
G1 X99.332 Y109.360 E0.07295
G1 X99.429 Y108.921 E0.01419
G1 X97.795 Y107.287 E0.07289
G1 X97.894 Y106.849 E0.01416
G1 X99.526 Y108.481 E0.07283
G1 X99.624 Y108.042 E0.01419
G1 X97.992 Y106.411 E0.07277
G1 X98.091 Y105.973 E0.01416
G1 X99.721 Y107.603 E0.07271
G1 X99.818 Y107.164 E0.01419
G1 X98.190 Y105.535 E0.07266
G1 X98.288 Y105.098 E0.01416
G1 X99.916 Y106.725 E0.07260
G1 X100.013 Y106.286 E0.01419
G1 X98.387 Y104.660 E0.07254
G1 X98.486 Y104.222 E0.01416
G1 X100.110 Y105.847 E0.07248
G1 X100.208 Y105.408 E0.01419
G1 X98.584 Y103.784 E0.07242
G1 X98.683 Y103.346 E0.01416
G1 X100.305 Y104.968 E0.07236
G1 X100.402 Y104.529 E0.01419
G1 X98.782 Y102.908 E0.07230
G1 X98.880 Y102.471 E0.01416
G1 X100.501 Y104.091 E0.07229
G1 X100.599 Y103.653 E0.01416
G1 X98.979 Y102.033 E0.07229
G1 X99.078 Y101.595 E0.01416
G1 X100.698 Y103.215 E0.07229
G1 X100.797 Y102.778 E0.01416
G1 X99.176 Y101.157 E0.07229
G1 X99.275 Y100.719 E0.01416
G1 X100.895 Y102.340 E0.07229
G1 X100.994 Y101.902 E0.01416
G1 X99.374 Y100.282 E0.07229
G1 X99.472 Y99.844 E0.01416
G1 X101.093 Y101.464 E0.07229
G1 X101.191 Y101.026 E0.01416
G1 X99.571 Y99.406 E0.07229
G1 X99.670 Y98.968 E0.01416
G1 X101.290 Y100.589 E0.07229
G1 X101.389 Y100.151 E0.01416
G1 X99.768 Y98.530 E0.07229
G1 X99.867 Y98.092 E0.01416
G1 X101.487 Y99.713 E0.07229
G1 X101.586 Y99.275 E0.01416
G1 X99.966 Y97.655 E0.07229
G1 X100.064 Y97.217 E0.01416
G1 X101.685 Y98.837 E0.07229
G1 X101.783 Y98.399 E0.01416
G1 X100.163 Y96.779 E0.07229
G1 X100.262 Y96.341 E0.01416
G1 X101.882 Y97.962 E0.07229
G1 X101.981 Y97.524 E0.01416
G1 X100.360 Y95.903 E0.07229
G1 X100.459 Y95.466 E0.01416
G1 X102.079 Y97.086 E0.07229
G1 X102.178 Y96.648 E0.01416
G1 X100.558 Y95.028 E0.07229
G1 X100.656 Y94.590 E0.01416
G1 X102.277 Y96.210 E0.07229
G1 X102.375 Y95.773 E0.01416
G1 X100.755 Y94.152 E0.07229
G1 X100.854 Y93.714 E0.01416
G1 X102.474 Y95.335 E0.07229
G1 X102.573 Y94.897 E0.01416
G1 X100.952 Y93.276 E0.07232
G1 X101.049 Y92.837 E0.01419
G1 X102.671 Y94.459 E0.07238
G1 X102.770 Y94.021 E0.01416
G1 X101.146 Y92.397 E0.07244
G1 X101.244 Y91.958 E0.01419
G1 X102.869 Y93.583 E0.07249
G1 X102.967 Y93.146 E0.01416
G1 X101.341 Y91.519 E0.07255
G1 X101.438 Y91.080 E0.01419
G1 X103.066 Y92.708 E0.07261
G1 X103.165 Y92.270 E0.01416
G1 X101.536 Y90.641 E0.07267
G1 X101.633 Y90.202 E0.01419
G1 X103.263 Y91.832 E0.07273
G1 X103.362 Y91.394 E0.01416
G1 X101.730 Y89.763 E0.07279
G1 X101.828 Y89.323 E0.01419
G1 X103.461 Y90.956 E0.07285
G1 X103.559 Y90.519 E0.01416
G1 X101.925 Y88.884 E0.07291
G1 X102.022 Y88.445 E0.01419
G1 X103.658 Y90.081 E0.07296
G1 X103.757 Y89.643 E0.01416
G1 X102.259 Y88.145 E0.06682
G1 X102.588 Y87.937 E0.01227
G1 X104.005 Y89.354 E0.06321
G1 X104.332 Y89.146 E0.01226
G1 X102.916 Y87.730 E0.06316
G1 X103.245 Y87.522 E0.01227
G1 X104.660 Y88.937 E0.06312
G1 X104.988 Y88.728 E0.01226
G1 X103.574 Y87.314 E0.06308
G1 X103.902 Y87.106 E0.01227
G1 X105.315 Y88.519 E0.06303
G1 X105.643 Y88.311 E0.01226
G1 X104.231 Y86.898 E0.06299
G1 X104.560 Y86.691 E0.01227
G1 X105.971 Y88.102 E0.06295
G1 X106.299 Y87.893 E0.01226
G1 X104.888 Y86.483 E0.06290
G1 X105.217 Y86.275 E0.01227
G1 X106.626 Y87.684 E0.06286
G1 X106.954 Y87.475 E0.01226
G1 X105.546 Y86.067 E0.06281
G1 X105.875 Y85.860 E0.01227
G1 X107.282 Y87.267 E0.06277
G1 X107.609 Y87.058 E0.01226
G1 X106.203 Y85.652 E0.06273
G1 X106.532 Y85.444 E0.01227
G1 X107.937 Y86.849 E0.06268
G1 X108.265 Y86.640 E0.01226
G1 X106.861 Y85.236 E0.06264
G1 X107.189 Y85.028 E0.01227
G1 X108.593 Y86.432 E0.06263
G1 X108.922 Y86.225 E0.01227
G1 X107.518 Y84.821 E0.06263
G1 X107.847 Y84.613 E0.01227
G1 X109.251 Y86.017 E0.06263
G1 X109.579 Y85.809 E0.01227
G1 X108.175 Y84.405 E0.06263
G1 X108.504 Y84.197 E0.01227
G1 X109.908 Y85.601 E0.06263
G1 X110.237 Y85.393 E0.01227
G1 X108.833 Y83.989 E0.06263
G1 X109.161 Y83.782 E0.01227
G1 X110.566 Y85.186 E0.06263
G1 X110.894 Y84.978 E0.01227
G1 X109.490 Y83.574 E0.06263
G1 X109.819 Y83.366 E0.01227
G1 X111.223 Y84.770 E0.06263
G1 X111.552 Y84.562 E0.01227
G1 X110.148 Y83.158 E0.06263
G1 X110.476 Y82.950 E0.01227
G1 X111.880 Y84.355 E0.06263
G1 X112.209 Y84.147 E0.01227
G1 X110.805 Y82.743 E0.06263
G1 X111.134 Y82.535 E0.01227
G1 X112.538 Y83.939 E0.06263
G1 X112.866 Y83.731 E0.01227
G1 X111.462 Y82.327 E0.06263
G1 X111.791 Y82.119 E0.01227
G1 X113.195 Y83.523 E0.06263
G1 X113.524 Y83.316 E0.01227
G1 X112.120 Y81.912 E0.06263
G1 X112.448 Y81.704 E0.01227
G1 X113.852 Y83.108 E0.06263
G1 X114.181 Y82.900 E0.01227
G1 X112.777 Y81.496 E0.06263
G1 X113.106 Y81.288 E0.01227
G1 X114.510 Y82.692 E0.06263
G1 X114.839 Y82.484 E0.01227
G1 X113.434 Y81.080 E0.06263
G1 X113.763 Y80.873 E0.01227
G1 X115.167 Y82.277 E0.06263
G1 X115.496 Y82.069 E0.01227
G1 X114.092 Y80.665 E0.06263
G1 X114.421 Y80.457 E0.01227
G1 X115.825 Y81.861 E0.06263
G1 X116.153 Y81.653 E0.01227
G1 X114.749 Y80.249 E0.06263
G1 X115.078 Y80.041 E0.01227
G1 X116.482 Y81.445 E0.06263
G1 X116.811 Y81.238 E0.01227
G1 X115.407 Y79.834 E0.06263
G1 X115.735 Y79.626 E0.01227
G1 X117.139 Y81.030 E0.06263
G1 X117.468 Y80.822 E0.01227
G1 X116.064 Y79.418 E0.06263
G1 X116.392 Y79.210 E0.01226
G1 X117.797 Y80.614 E0.06264
G1 X118.125 Y80.406 E0.01227
G1 X116.720 Y79.001 E0.06269
G1 X117.048 Y78.792 E0.01226
G1 X118.454 Y80.199 E0.06273
G1 X118.783 Y79.991 E0.01227
G1 X117.376 Y78.584 E0.06278
G1 X117.703 Y78.375 E0.01226
G1 X119.112 Y79.783 E0.06282
G1 X119.440 Y79.575 E0.01227
G1 X118.031 Y78.166 E0.06286
G1 X118.359 Y77.957 E0.01226
G1 X119.769 Y79.368 E0.06291
G1 X120.098 Y79.160 E0.01227
G1 X118.686 Y77.749 E0.06295
G1 X119.014 Y77.540 E0.01226
G1 X120.426 Y78.952 E0.06299
G1 X120.755 Y78.744 E0.01227
G1 X119.342 Y77.331 E0.06304
G1 X119.670 Y77.122 E0.01226
G1 X121.084 Y78.536 E0.06308
G1 X121.210 Y78.456 E0.00472
G1 X121.634 Y78.550 E0.01371
G1 X119.997 Y76.913 E0.07303
G1 X120.325 Y76.705 E0.01226
G1 X122.324 Y78.703 E0.08916
G1 X123.013 Y78.856 E0.02227
G1 X120.653 Y76.496 E0.10529
G1 X120.850 Y76.370 E0.00736
G1 X121.126 Y76.433 E0.00894
G1 X123.702 Y79.009 E0.11492
G1 X124.392 Y79.162 E0.02227
G1 X121.819 Y76.589 E0.11477
G1 X122.511 Y76.745 E0.02239
G1 X125.081 Y79.315 E0.11463
G1 X125.770 Y79.467 E0.02227
G1 X123.204 Y76.901 E0.11448
G1 X123.896 Y77.057 E0.02239
G1 X126.460 Y79.620 E0.11435
G1 X127.152 Y79.776 E0.02239
G1 X124.589 Y77.213 E0.11435
G1 X125.281 Y77.369 E0.02239
G1 X127.845 Y79.933 E0.11435
G1 X128.537 Y80.089 E0.02239
G1 X125.974 Y77.525 E0.11435
G1 X126.667 Y77.681 E0.02239
G1 X129.230 Y80.245 E0.11435
G1 X129.922 Y80.401 E0.02239
G1 X127.359 Y77.837 E0.11435
G1 X128.052 Y77.994 E0.02239
G1 X130.615 Y80.557 E0.11435
G1 X131.308 Y80.713 E0.02239
G1 X128.744 Y78.150 E0.11435
G1 X129.437 Y78.306 E0.02239
G1 X132.000 Y80.869 E0.11435
G1 X132.693 Y81.025 E0.02239
G1 X130.129 Y78.462 E0.11435
G1 X130.822 Y78.618 E0.02239
G1 X133.385 Y81.181 E0.11435
G1 X134.078 Y81.337 E0.02239
G1 X131.514 Y78.774 E0.11435
M73 Q1 S99
G1 X132.207 Y78.930 E0.02239
G1 X134.770 Y81.493 E0.11435
G1 X135.463 Y81.649 E0.02239
G1 X132.900 Y79.086 E0.11435
M73 P1 R99
G1 X133.592 Y79.242 E0.02239
G1 X136.155 Y81.805 E0.11435
G1 X136.848 Y81.962 E0.02239
G1 X134.285 Y79.398 E0.11435
G1 X134.977 Y79.554 E0.02239
G1 X137.541 Y82.118 E0.11435
G1 X138.233 Y82.274 E0.02239
G1 X135.670 Y79.710 E0.11435
G1 X136.362 Y79.866 E0.02239
G1 X138.926 Y82.430 E0.11435
G1 X139.618 Y82.586 E0.02239
G1 X137.055 Y80.023 E0.11435
G1 X137.745 Y80.176 E0.02231
G1 X140.535 Y82.966 E0.12446
G1 F8640
G1 X137.745 Y80.176 E-0.91104
G1 X137.055 Y80.023 E-0.16334
G1 X137.838 Y80.805 E-0.25562
G1 E-0.07000 F2100.00000
G1 Z0.400 F10800.000
G1 X142.149 Y84.580
G1 Z0.200
G1 E1.40000 F2100.00000
G1 F1200
G1 X149.539 Y91.970 E0.32968
G1 F8640
G1 X145.466 Y87.897 E-1.33000
G1 E-0.07000 F2100.00000
G1 Z0.400 F10800.000
G1 X148.615 Y90.509
G1 Z0.200
G1 E1.40000 F2100.00000
G1 F1200
G1 X138.435 Y80.329 E0.45412
G1 X139.124 Y80.482 E0.02227
G1 X147.690 Y89.049 E0.38214
G1 F8640
G1 X143.617 Y84.976 E-1.33000
G1 E-0.07000 F2100.00000
G1 Z0.400 F10800.000
G1 X146.766 Y87.588
G1 Z0.200
G1 E1.40000 F2100.00000
G1 F1200
G1 X139.813 Y80.635 E0.31016
G1 X140.503 Y80.788 E0.02227
G1 X145.842 Y86.127 E0.23817
G1 F8640
G1 X141.769 Y82.054 E-1.33000
G1 E-0.07000 F2100.00000
G1 Z0.400 F10800.000
G1 X144.917 Y84.666
G1 Z0.200
G1 E1.40000 F2100.00000
G1 F1200
G1 X141.192 Y80.941 E0.16619
G1 X141.881 Y81.093 E0.02227
G1 X143.993 Y83.205 E0.09421
G1 F8640
G1 X141.881 Y81.093 E-0.68960
G1 X141.192 Y80.941 E-0.16302
G1 X142.654 Y82.402 E-0.47737
G1 E-0.07000 F2100.00000
G1 Z0.400 F10800.000
G1 X143.077 Y86.044
G1 Z0.200
G1 E1.40000 F2100.00000
G1 F1200
G1 X150.463 Y93.431 E0.32952
G1 F8640
G1 X146.391 Y89.358 E-1.33000
G1 E-0.07000 F2100.00000
G1 Z0.400 F10800.000
G1 X150.575 Y94.616
G1 Z0.200
G1 E1.40000 F2100.00000
G1 F1200
G1 X144.933 Y88.973 E0.25170
G1 F8640
G1 X149.006 Y93.046 E-1.33000
G1 E-0.07000 F2100.00000
G1 Z0.400 F10800.000
G1 X144.005 Y87.509
G1 Z0.200
G1 E1.40000 F2100.00000
G1 F1200
G1 X151.031 Y94.535 E0.31344
G1 X150.119 Y94.696 F10800.000
G1 F1200
G1 X145.861 Y90.438 E0.18996
G1 F8640
G1 X149.934 Y94.511 E-1.33000
G1 E-0.07000 F2100.00000
G1 Z0.400 F10800.000
G1 X146.789 Y91.902
G1 Z0.200
G1 E1.40000 F2100.00000
G1 F1200
G1 X149.663 Y94.777 E0.12821
G1 X149.207 Y94.857 F10800.000
G1 F1200
G1 X147.717 Y93.367 E0.06647
G1 F8640
G1 X149.207 Y94.857 E-0.48655
G1 E-0.91345 F2100.00000
G1 Z0.400 F10800.000
G1 X141.322 Y126.672
G1 Z0.200
G1 E1.40000 F2100.00000
G1 F1200
G1 X140.086 Y125.436 E0.05515
G1 X139.757 Y125.644 E0.01227
G1 X141.167 Y127.054 E0.06290
G1 X140.839 Y127.262 E0.01226
G1 X139.429 Y125.852 E0.06291
G1 X139.100 Y126.059 E0.01227
G1 X140.511 Y127.470 E0.06292
G1 X140.182 Y127.678 E0.01226
G1 X138.771 Y126.267 E0.06293
G1 X138.443 Y126.475 E0.01227
G1 X139.854 Y127.886 E0.06294
G1 X139.525 Y128.094 E0.01226
G1 X138.114 Y126.683 E0.06296
G1 X137.786 Y126.891 E0.01227
G1 X139.197 Y128.302 E0.06297
G1 X138.869 Y128.510 E0.01226
G1 X137.457 Y127.099 E0.06298
G1 X137.128 Y127.307 E0.01227
G1 X138.540 Y128.719 E0.06299
G1 X138.212 Y128.927 E0.01226
G1 X136.800 Y127.514 E0.06300
G1 X136.471 Y127.722 E0.01227
G1 X137.884 Y129.135 E0.06301
G1 X137.555 Y129.343 E0.01226
G1 X136.142 Y127.930 E0.06302
G1 X135.814 Y128.138 E0.01227
G1 X137.227 Y129.551 E0.06303
G1 X136.898 Y129.759 E0.01226
G1 X135.485 Y128.346 E0.06305
G1 X135.157 Y128.554 E0.01227
G1 X136.570 Y129.967 E0.06306
G1 X136.242 Y130.175 E0.01226
G1 X134.828 Y128.762 E0.06307
G1 X134.499 Y128.969 E0.01227
G1 X135.913 Y130.383 E0.06308
G1 X135.585 Y130.592 E0.01226
G1 X134.171 Y129.177 E0.06309
G1 X133.842 Y129.385 E0.01227
G1 X135.257 Y130.800 E0.06310
G1 X134.928 Y131.008 E0.01226
G1 X133.513 Y129.593 E0.06311
G1 X133.185 Y129.801 E0.01227
G1 X134.600 Y131.216 E0.06313
G1 X134.271 Y131.424 E0.01226
G1 X132.856 Y130.009 E0.06314
G1 X132.528 Y130.217 E0.01227
G1 X133.943 Y131.632 E0.06315
G1 X133.615 Y131.840 E0.01226
G1 X132.199 Y130.424 E0.06316
G1 X131.870 Y130.632 E0.01227
G1 X133.286 Y132.048 E0.06317
G1 X132.958 Y132.256 E0.01226
G1 X131.542 Y130.840 E0.06318
G1 X131.213 Y131.048 E0.01227
G1 X132.630 Y132.465 E0.06319
G1 X132.301 Y132.673 E0.01226
G1 X130.884 Y131.256 E0.06320
G1 X130.556 Y131.464 E0.01227
G1 X131.973 Y132.881 E0.06322
G1 X131.644 Y133.089 E0.01226
G1 X130.005 Y131.450 E0.07313
G1 X129.316 Y131.297 E0.02227
G1 X131.316 Y133.297 E0.08923
G1 X130.988 Y133.505 E0.01226
G1 X128.627 Y131.144 E0.10533
G1 X127.937 Y130.991 E0.02227
G1 X130.513 Y133.567 E0.11492
G1 X129.821 Y133.411 E0.02239
G1 X127.248 Y130.838 E0.11477
G1 X126.559 Y130.685 E0.02227
